X:110
T:Tom Billy's
M:6/8
L:1/8
R:jig
K:Ador
A3 ABd | edB G2B | dBB GBB | ABd efg |
A3 ABd | edB G2B | dBB gdB |1 ABA A2G :|2 ABA A2d |:
eaa aga | bab agd | ede G3 | ede ged |
eaa aga | bab agd | e2e dBG |1 BGA A2d :|2 BGA A2G |]
